X: 15587
T: Glwysen
R: waltz
M: 3/4
K: Gminor
D2|"Gm" G2 GA BG|"D" A2 ^F2 D2|"Gm" G2 GA "F" Bc|"D" d3 c BA|
"Gm" G2 GA BG|"D" A2 ^F2 D2|"Cm" GE "Gm" DB "D" A^F|"Gm" G4:|
A2|"B♭" B2 Bc dB|"F" f4 F2|"E♭" G2 GA Bc|"D" d4 d2|
"Gm" g^f g=f "E♭" ed|ed ed "Cm" cB|cB cB "D" AG|^F2 =EF D2|
"Gm" G2 GA BG|"D" A2 ^F2 D2|"Gm" G2 GA "F" Bc|"D" d3 c BA|
"Gm" G2 GA BG|"D" A2 ^F2 D2|"Cm" GE "Gm" DB "D" A^F|"Gm" G4||

